assets/images/icons/src/exclamation-triangle.svg

<?xml version="1.0" encoding="utf-8"?>
<!-- Generated by IcoMoon.io -->
<!DOCTYPE svg PUBLIC "-//W3C//DTD SVG 1.1//EN" "http://www.w3.org/Graphics/SVG/1.1/DTD/svg11.dtd">
<svg version="1.1" xmlns="http://www.w3.org/2000/svg" xmlns:xlink="http://www.w3.org/1999/xlink" width="14" height="14" viewBox="0 0 14 14">
<path fill="#444444" d="M8 10.742v-1.484q0-0.109-0.074-0.184t-0.176-0.074h-1.5q-0.102 0-0.176 0.074t-0.074 0.184v1.484q0 0.109 0.074 0.184t0.176 0.074h1.5q0.102 0 0.176-0.074t0.074-0.184zM7.984 7.82l0.141-3.586q0-0.094-0.078-0.148-0.102-0.086-0.187-0.086h-1.719q-0.086 0-0.187 0.086-0.078 0.055-0.078 0.164l0.133 3.57q0 0.078 0.078 0.129t0.187 0.051h1.445q0.109 0 0.184-0.051t0.082-0.129zM7.875 0.523l6 11q0.273 0.492-0.016 0.984-0.133 0.227-0.363 0.359t-0.496 0.133h-12q-0.266 0-0.496-0.133t-0.363-0.359q-0.289-0.492-0.016-0.984l6-11q0.133-0.242 0.367-0.383t0.508-0.141 0.508 0.141 0.367 0.383z"></path>
</svg>

<svg xmlns="http://www.w3.org/2000/svg" width="14" height="14" viewBox="0 0 14 14"><path fill="#444" d="M8 10.742V9.258q0-.109-.074-.184T7.75 9h-1.5q-.102 0-.176.074T6 9.258v1.484q0 .109.074.184T6.25 11h1.5q.102 0 .176-.074T8 10.742zM7.984 7.82l.141-3.586q0-.094-.078-.148Q7.945 4 7.86 4H6.141q-.086 0-.187.086-.078.055-.078.164l.133 3.57q0 .078.078.129T6.274 8h1.445q.109 0 .184-.051t.082-.129zM7.875.523l6 11q.273.492-.016.984-.133.227-.363.359t-.496.133H1q-.266 0-.496-.133t-.363-.359q-.289-.492-.016-.984l6-11q.133-.242.367-.383T7-.001t.508.141.367.383z"/></svg>
